fs/emoji_sparkle_32_filled.svg

<svg viewBox="0 0 32 32" fill="none" xmlns="http://www.w3.org/2000/svg" height="1em" width="1em">
  <path d="M18.003 5.55896C18.0128 5.67703 18.054 5.79071 18.1228 5.88799C18.2022 6.00028 18.3145 6.08518 18.4442 6.13101L20.1282 6.67701C20.6408 6.84804 21.1065 7.13635 21.4882 7.51901C21.5901 7.62196 21.686 7.73082 21.7752 7.84501C22.0163 8.1568 22.2023 8.50752 22.3252 8.88201L22.8732 10.565C22.9074 10.6619 22.9637 10.7495 23.0376 10.821C23.1114 10.8925 23.2009 10.9459 23.2988 10.977C23.3968 11.0081 23.5006 11.016 23.6022 11.0003C23.7037 10.9845 23.8003 10.9454 23.8842 10.886C23.9844 10.8156 24.063 10.7186 24.1112 10.606L24.1123 10.6034C24.1138 10.6001 24.1156 10.5968 24.1173 10.5936C24.1223 10.5841 24.1272 10.5748 24.1272 10.565L24.2476 10.1953L24.246 10.1916L24.6746 8.87378C24.8448 8.36221 25.132 7.89736 25.5135 7.51616C25.895 7.13496 26.3602 6.84793 26.8722 6.67788L28.5561 6.13101C28.6859 6.08525 28.7983 6.0004 28.8778 5.88813C28.9573 5.77587 29 5.64173 29 5.50421C29 5.36668 28.9573 5.23254 28.8778 5.12028C28.7983 5.00802 28.6859 4.92316 28.5561 4.87741L28.5224 4.86899L26.8385 4.32212C26.3265 4.15207 25.8613 3.86504 25.4798 3.48384C25.0983 3.10264 24.8111 2.63779 24.6409 2.12622L24.0936 0.443537C24.0478 0.313845 23.9629 0.201538 23.8505 0.122099C23.7382 0.0426599 23.604 0 23.4663 0C23.3287 0 23.1944 0.0426599 23.0821 0.122099C22.9697 0.201538 22.8848 0.313845 22.839 0.443537L22.2918 2.12622L22.2778 2.16788C22.1094 2.65949 21.8326 3.10718 21.4675 3.47768C21.0921 3.85862 20.6336 4.14763 20.1278 4.32212L18.4439 4.86899C18.3141 4.91475 18.2017 4.9996 18.1222 5.11187C18.0427 5.22413 18 5.35827 18 5.49579C18 5.51695 18.001 5.53803 18.003 5.55896ZM27.9312 11.8527L27.9346 11.8516C28.1178 11.6528 28.2565 11.417 28.341 11.1598L28.6395 10.2419C28.6645 10.1712 28.7108 10.1099 28.7721 10.0666C28.8333 10.0233 28.9066 10 28.9816 10C29.0567 10 29.1299 10.0233 29.1912 10.0666C29.2525 10.1099 29.2988 10.1712 29.3238 10.2419L29.6223 11.1598C29.7151 11.4388 29.8718 11.6924 30.0799 11.9003C30.288 12.1082 30.5417 12.2648 30.821 12.3575L31.7395 12.6558L31.7579 12.6604C31.8287 12.6854 31.89 12.7316 31.9333 12.7929C31.9767 12.8541 32 12.9273 32 13.0023C32 13.0773 31.9767 13.1505 31.9333 13.2117C31.89 13.2729 31.8287 13.3192 31.7579 13.3442L30.8394 13.6425C30.5601 13.7352 30.3064 13.8918 30.0983 14.0997C30.0264 14.1716 29.9606 14.2488 29.9015 14.3307L29.902 14.3351C29.7905 14.4901 29.7027 14.6616 29.6422 14.844L29.3422 15.762C29.317 15.8326 29.2707 15.8937 29.2094 15.9369C29.1482 15.9801 29.0751 16.0033 29.0002 16.0033C28.9252 16.0033 28.8521 15.9801 28.7909 15.9369C28.7296 15.8937 28.6833 15.8326 28.6582 15.762L28.3582 14.844C28.2657 14.5642 28.1091 14.3099 27.9007 14.1015C27.6923 13.8931 27.438 13.7364 27.1582 13.644L26.2392 13.344C26.1685 13.3189 26.1073 13.2724 26.0642 13.211C26.0317 13.1653 26.0103 13.1127 26.0017 13.0573C25.993 13.0019 25.9974 12.9453 26.0143 12.8919C26.0253 12.8572 26.0415 12.8245 26.0621 12.7948L26.0667 12.7883C26.11 12.7271 26.1713 12.6808 26.2421 12.6558L27.1606 12.3575C27.2787 12.3168 27.392 12.2646 27.4991 12.202C27.6411 12.1182 27.772 12.0161 27.8883 11.8978C27.9028 11.883 27.9172 11.8679 27.9312 11.8527ZM16 30C8.26801 30 2 23.732 2 16C2 8.26801 8.26801 2 16 2C17.4486 2 18.8458 2.22001 20.1601 2.62844C20.0015 2.74421 19.826 2.83591 19.6392 2.90001L17.9812 3.43801C17.5449 3.5839 17.1659 3.86389 16.8982 4.23801C16.7046 4.51124 16.5771 4.82566 16.5257 5.15652C16.4742 5.48739 16.5003 5.82568 16.6018 6.14477C16.7033 6.46385 16.8774 6.75504 17.1105 6.99541C17.3436 7.23578 17.6293 7.41878 17.9452 7.53001L19.6642 8.08901C19.9514 8.18641 20.2122 8.34899 20.4262 8.56401C20.4842 8.62235 20.5386 8.68413 20.5892 8.74901C20.726 8.92539 20.8315 9.12394 20.9012 9.33601L21.4462 11.013C21.5918 11.4494 21.8718 11.8285 22.2462 12.096C22.606 12.3504 23.0349 12.4888 23.4756 12.4929C23.9162 12.4971 24.3476 12.3666 24.7122 12.119C24.5869 12.3557 24.5142 12.6166 24.499 12.884C24.4837 13.1513 24.5263 13.4188 24.6237 13.6682C24.7212 13.9176 24.8713 14.1431 25.0638 14.3293C25.2563 14.5154 25.4866 14.6579 25.7392 14.747L26.6932 15.058C26.7471 15.077 26.7961 15.1082 26.8362 15.149C26.8794 15.1922 26.912 15.245 26.9312 15.303L27.2312 16.215C27.3575 16.5929 27.6005 16.921 27.9252 17.152C28.1602 17.3182 28.4305 17.4277 28.715 17.4719C28.9994 17.516 29.2903 17.4936 29.5646 17.4064C29.6982 17.3639 29.8262 17.3066 29.9462 17.2358C29.3206 24.389 23.3156 30 16 30ZM12 15C13.1046 15 14 14.1046 14 13C14 11.8954 13.1046 11 12 11C10.8954 11 10 11.8954 10 13C10 14.1046 10.8954 15 12 15ZM22 13C22 11.8954 21.1046 11 20 11C18.8954 11 18 11.8954 18 13C18 14.1046 18.8954 15 20 15C21.1046 15 22 14.1046 22 13ZM9.553 19.1056C9.05902 19.3526 8.85881 19.9532 9.10578 20.4472L9.10633 20.4483L9.10691 20.4495L9.10818 20.452L9.11117 20.4579L9.11896 20.4729C9.12497 20.4843 9.13261 20.4987 9.14194 20.5156C9.16059 20.5495 9.18603 20.5941 9.21867 20.6479C9.28388 20.7553 9.37817 20.8998 9.5049 21.0688C9.75802 21.4062 10.1433 21.8451 10.688 22.2809C11.79 23.1625 13.5073 24 16.0002 24C18.4931 24 20.2104 23.1625 21.3124 22.2809C21.8571 21.8451 22.2424 21.4062 22.4955 21.0688C22.6222 20.8998 22.7165 20.7553 22.7818 20.6479C22.8144 20.5941 22.8398 20.5495 22.8585 20.5156L22.8699 20.4946L22.8815 20.4729L22.8893 20.4579L22.8922 20.452L22.8935 20.4495L22.8941 20.4483L22.8946 20.4472C23.1416 19.9532 22.9414 19.3526 22.4474 19.1056C21.9559 18.8598 21.3589 19.0568 21.1096 19.5453L21.1061 19.5518C21.1005 19.5618 21.0894 19.5816 21.0722 19.6099C21.0378 19.6666 20.9797 19.7565 20.8955 19.8688C20.7268 20.0938 20.4558 20.4049 20.063 20.7191C19.29 21.3375 18.0073 22 16.0002 22C13.9931 22 12.7104 21.3375 11.9374 20.7191C11.5446 20.4049 11.2737 20.0938 11.1049 19.8688C11.0207 19.7565 10.9626 19.6666 10.9282 19.6099C10.9111 19.5816 10.8999 19.5618 10.8944 19.5518L10.8909 19.5453C10.6416 19.0568 10.0445 18.8598 9.553 19.1056Z" fill="#212121"/>
</svg>

<svg viewBox="0 0 32 32" fill="none" xmlns="http://www.w3.org/2000/svg" height="1em" width="1em">
  <path d="M18.003 5.559a.665.665 0 0 0 .441.572l1.684.546a3.474 3.474 0 0 1 2.197 2.205l.548 1.683a.664.664 0 0 0 1.011.321.66.66 0 0 0 .227-.28l.001-.003.005-.01c.005-.009.01-.018.01-.028l.12-.37-.001-.003.429-1.318a3.466 3.466 0 0 1 2.197-2.196l1.684-.547a.665.665 0 0 0 0-1.254l-.034-.008-1.683-.547a3.47 3.47 0 0 1-2.198-2.196L24.094.444a.665.665 0 0 0-1.255 0l-.547 1.682-.014.042a3.466 3.466 0 0 1-2.15 2.154l-1.684.547a.665.665 0 0 0-.441.69Zm9.928 6.294.004-.001a1.9 1.9 0 0 0 .406-.692l.299-.918a.363.363 0 0 1 .684 0l.298.918a1.89 1.89 0 0 0 1.199 1.197l.918.299.019.004a.362.362 0 0 1 0 .684l-.919.299a1.892 1.892 0 0 0-.938.688l.001.004c-.111.155-.2.327-.26.509l-.3.918a.363.363 0 0 1-.684 0l-.3-.918a1.888 1.888 0 0 0-1.2-1.2l-.919-.3a.362.362 0 0 1-.225-.452.363.363 0 0 1 .048-.097l.005-.007a.363.363 0 0 1 .175-.132l.919-.299a1.893 1.893 0 0 0 .77-.504ZM16 30C8.268 30 2 23.732 2 16S8.268 2 16 2c1.449 0 2.846.22 4.16.628a1.966 1.966 0 0 1-.52.272l-1.659.538a2.163 2.163 0 0 0-.036 4.092l1.72.559A1.966 1.966 0 0 1 20.9 9.336l.545 1.677c.146.436.426.816.8 1.083a2.164 2.164 0 0 0 2.466.023 1.86 1.86 0 0 0 1.027 2.628l.954.311a.392.392 0 0 1 .238.245l.3.912a1.863 1.863 0 0 0 2.715 1.02C29.321 24.39 23.316 30 16 30Zm-4-15a2 2 0 1 0 0-4 2 2 0 0 0 0 4Zm10-2a2 2 0 1 0-4 0 2 2 0 0 0 4 0ZM9.553 19.106a1 1 0 0 0-.447 1.341v.003l.002.002.003.006.008.015a2.448 2.448 0 0 0 .1.175c.065.107.16.252.286.42a6.76 6.76 0 0 0 1.183 1.213C11.79 23.163 13.508 24 16 24c2.493 0 4.21-.837 5.312-1.72a6.76 6.76 0 0 0 1.183-1.211 5.275 5.275 0 0 0 .363-.553l.012-.021.011-.022.008-.015.003-.006.002-.003v-.002a1 1 0 0 0-1.784-.902l-.004.007-.034.058a3.242 3.242 0 0 1-.177.259c-.168.225-.44.536-.832.85C19.29 21.337 18.007 22 16 22c-2.007 0-3.29-.663-4.063-1.28a4.76 4.76 0 0 1-.832-.851 3.242 3.242 0 0 1-.21-.317l-.004-.007a1 1 0 0 0-1.338-.44Z" fill="#212121"/>
</svg>
